X:1
T:RVW2/1/1 The Green Mossy Banks
T: Played on a penny whistle at the Bell, Kersey, Suffolk, Aug. 30th 1907
L:1/4
Q:1/4=116
M:3/4
I:linebreak $
K:Eaeo
"^(editorial suggestion) " E/F/ | G B G | F A F/E/ | D E2- | E2 E/F/ | G B G | F A G | E3- |
E2 E/F/ | G B B |$ F A F | D E E/F/ | G F E | B, E F | E2 E/F/ |"^(a)" G A B | d B G | F D2- |
D2 E/F/ | G A B |$ d B d | e3- | e2 e | d2 B/A/ | G A F | D E2- | E2 E/F/ | G B B | F A F | E2 ||$
E/F/ | G B G | F A F/E/ | D E2- | E2 E/F/ | G B G | F A G | E3- | E2 E/F/ | G B B |$ F A F |
D E E/F/ | G F E | B, E F | E2 E/F/ |"^(a) var." G2 G | d B G | F D2- | D2 E/F/ | G A B |$ d B d |
e3- | e2 e | d2 B/A/ | G A F | D E2- | E2 E/F/ | G B B | F A F | E2 |]

